resources/icons/20px/rect-height.svg

<svg width="20" height="20" viewBox="0 0 20 20" fill="none" xmlns="http://www.w3.org/2000/svg">
<path fill-rule="evenodd" clip-rule="evenodd" d="M4 18V2H16V18H4ZM2 1C2 0.447716 2.44772 0 3 0H17C17.5523 0 18 0.447715 18 1V19C18 19.5523 17.5523 20 17 20H3C2.44772 20 2 19.5523 2 19V1ZM6.29259 12.7053C5.90247 12.3152 5.90247 11.6827 6.29259 11.2926C6.68271 10.9025 7.31521 10.9025 7.70533 11.2926L10 13.5873L12.2947 11.2926C12.6848 10.9025 13.3173 10.9025 13.7074 11.2926C14.0975 11.6827 14.0975 12.3152 13.7074 12.7053L10.745 15.6677C10.7329 15.6812 10.7204 15.6944 10.7074 15.7074C10.5121 15.9027 10.256 16.0003 10 16C9.744 16.0003 9.48791 15.9027 9.29259 15.7074C9.27962 15.6944 9.26708 15.6812 9.25498 15.6677L6.29259 12.7053ZM6.29259 8.70741C5.90247 8.31729 5.90247 7.68479 6.29259 7.29467L9.25498 4.33228C9.26708 4.31879 9.27962 4.30556 9.29259 4.29259C9.48791 4.09727 9.744 3.99974 10 4C10.256 3.99974 10.5121 4.09727 10.7074 4.29259C10.7204 4.30556 10.7329 4.31879 10.745 4.33228L13.7074 7.29467C14.0975 7.68479 14.0975 8.31729 13.7074 8.70741C13.3173 9.09753 12.6848 9.09753 12.2947 8.70741L10 6.41274L7.70533 8.70741C7.31521 9.09753 6.68271 9.09753 6.29259 8.70741Z" fill="black"/>
</svg>

<svg xmlns="http://www.w3.org/2000/svg" viewBox="0 0 20 20">
  <path d="M4 18V2h12v16zM2 1a1 1 0 0 1 1-1h14a1 1 0 0 1 1 1v18a1 1 0 0 1-1 1H3a1 1 0 0 1-1-1zm4.293 11.705a.999.999 0 1 1 1.412-1.412L10 13.587l2.295-2.294a.999.999 0 0 1 1.412 1.412l-2.962 2.963a1 1 0 0 1-1.49 0zm0-3.998a1 1 0 0 1 0-1.412l2.962-2.963A1 1 0 0 1 10 4a1 1 0 0 1 .745.332l2.962 2.963a.999.999 0 0 1-1.412 1.412L10 6.413 7.705 8.707a1 1 0 0 1-1.412 0"/>
</svg>
